remix/Media/notification-2-fill.svg

<svg viewBox="0 0 24 24" fill="currentColor" xmlns="http://www.w3.org/2000/svg"><path d="M22 20H2V18H3V11.0314C3 6.04348 7.02944 2 12 2C16.9706 2 21 6.04348 21 11.0314V18H22V20ZM9.5 21H14.5C14.5 22.3807 13.3807 23.5 12 23.5C10.6193 23.5 9.5 22.3807 9.5 21Z"/></svg>

<svg viewBox="0 0 24 24" xmlns="http://www.w3.org/2000/svg"><path fill="none" d="M0 0h24v24H0Z"/><path d="M22 20H2v-2h1v-6.97c0-4.99 4.03-9.04 9-9.04s9 4.043 9 9.03v6.96h1v2ZM9.5 21h5v0c0 1.38-1.12 2.5-2.5 2.5 -1.39 0-2.5-1.12-2.5-2.5Z"/></svg>
